menu/servicecontrol-icon.svg

<?xml version="1.0" encoding="UTF-8" standalone="no"?>
<!DOCTYPE svg  PUBLIC '-//W3C//DTD SVG 1.1//EN'  'http://www.w3.org/Graphics/SVG/1.1/DTD/svg11.dtd'>
<svg stroke-linejoin="round" xmlns="http://www.w3.org/2000/svg" fill-rule="evenodd" xml:space="preserve" height="100%" width="100%" version="1.1" stroke-miterlimit="1.4142" clip-rule="evenodd" xmlns:xlink="http://www.w3.org/1999/xlink" viewBox="0 0 256 256">
    <g id="SC" transform="matrix(4.0125 0 0 4.0125 -474.28 -417.3)">
                <rect height="63.8" width="63.8" y="104" x="118.2" fill="#92117e"/>
                <g fill="#a84198">
                    <rect height="7.1" width="7.1" y="111.1" x="125.3"/>
                    <rect height="7.1" width="7.1" y="111.1" x="139.5"/>
                    <rect height="7.1" width="7.1" y="111.1" x="153.6"/>
                    <rect height="7.1" width="7.1" y="125.3" x="139.5"/>
                    <rect height="7.1" width="7.1" y="125.3" x="153.6"/>
                    <rect height="7.1" width="7.1" y="111.1" x="167.8"/>
                    <rect height="7.1" width="7.1" y="125.3" x="167.8"/>
                    <rect height="7.1" width="7.1" y="125.3" x="125.3"/>
                    <rect height="7.1" width="7.1" y="139.4" x="125.3"/>
                    <rect height="7.1" width="7.1" y="139.4" x="139.5"/>
                    <rect height="7.1" width="7.1" y="139.4" x="167.8"/>
                    <rect height="7.1" width="7.1" y="153.6" x="125.3"/>
                    <rect height="7.1" width="7.1" y="153.6" x="139.5"/>
                    <rect height="7.1" width="7.1" y="153.6" x="153.6"/>
                    <rect height="7.1" width="7.1" y="139.4" x="153.6"/>
                    <rect height="7.1" width="7.1" y="153.6" x="167.8"/>
                </g>
            <path id="gear-9-icon_1_" fill-rule="nonzero" fill="#fff" d="m158.8 135v-4.3l-2.3-0.8c-0.9-0.3-1.6-1-1.9-1.8-0.4-0.9-0.3-1.8 0.1-2.7l1-2.2-3-3-2.2 1c-0.8 0.4-1.8 0.4-2.7 0.1-0.9-0.4-1.5-1.1-1.8-1.9l-0.8-2.3h-4.3l-0.8 2.3c-0.3 0.9-1 1.6-1.8 1.9-0.9 0.4-1.8 0.3-2.7-0.1l-2.2-1-3 3 1 2.2c0.4 0.8 0.4 1.8 0.1 2.7-0.4 0.9-1.1 1.5-1.9 1.8l-2.3 0.8v4.3l2.3 0.8c0.9 0.3 1.6 1 1.9 1.8 0.4 0.9 0.3 1.8-0.1 2.7l-1 2.2 3 3 2.2-1c0.8-0.4 1.8-0.4 2.7-0.1 0.9 0.4 1.5 1.1 1.8 1.9l0.8 2.3h4.3l0.8-2.3c0.3-0.9 1-1.6 1.9-2s1.8-0.3 2.7 0.1l2.2 1.1 3-3-1-2.2c-0.4-0.8-0.4-1.8-0.1-2.7 0.4-0.9 1.1-1.5 1.9-1.8l2.2-0.8zm-15.8 3.7c-3.2 0-5.8-2.6-5.8-5.8s2.6-5.8 5.8-5.8 5.8 2.6 5.8 5.8-2.6 5.8-5.8 5.8zm30.1 8.8v-2.3l-1.2-0.4c-0.5-0.2-0.8-0.5-1-1s-0.2-1 0-1.4l0.6-1.2-1.6-1.6-1.2 0.6c-0.4 0.2-1 0.2-1.4 0-0.5-0.2-0.8-0.6-1-1l-0.4-1.2h-2.3l-0.4 1.2c-0.2 0.5-0.5 0.8-1 1s-1 0.2-1.4 0l-1.2-0.6-1.6 1.6 0.6 1.2c0.2 0.4 0.2 1 0 1.4-0.2 0.5-0.6 0.8-1 1l-1.2 0.4v2.3l1.2 0.4c0.5 0.2 0.8 0.5 1 1s0.2 1 0 1.4l-0.6 1.2 1.6 1.6 1.2-0.6c0.4-0.2 1-0.2 1.4 0 0.5 0.2 0.8 0.6 1 1l0.4 1.2h2.3l0.4-1.2c0.2-0.5 0.5-0.9 1-1 0.5-0.2 1-0.2 1.4 0l1.2 0.6 1.6-1.6-0.6-1.2c-0.2-0.4-0.2-1 0-1.4 0.2-0.5 0.6-0.8 1-1l1.2-0.4zm-8.4 2c-1.7 0-3.1-1.4-3.1-3.1s1.4-3.1 3.1-3.1 3.1 1.4 3.1 3.1-1.4 3.1-3.1 3.1z"/>
    </g>
</svg>

<?xml version="1.0" standalone="no"?>
<!DOCTYPE svg PUBLIC "-//W3C//DTD SVG 1.1//EN" "http://www.w3.org/Graphics/SVG/1.1/DTD/svg11.dtd">
<svg width="100%" height="100%" viewBox="0 0 256 256" version="1.1" xmlns="http://www.w3.org/2000/svg" xmlns:xlink="http://www.w3.org/1999/xlink" xml:space="preserve" style="fill-rule:evenodd;clip-rule:evenodd;stroke-linejoin:round;stroke-miterlimit:1.41421;">
    <g id="SC" transform="matrix(4.01254,0,0,4.01254,-474.282,-417.304)">
        <g>
            <g>
                <rect x="118.2" y="104" width="63.8" height="63.8" style="fill:rgb(146,17,126);"/>
                <g>
                    <rect x="125.3" y="111.1" width="7.1" height="7.1" style="fill:rgb(168,65,152);"/>
                    <rect x="139.5" y="111.1" width="7.1" height="7.1" style="fill:rgb(168,65,152);"/>
                    <rect x="153.6" y="111.1" width="7.1" height="7.1" style="fill:rgb(168,65,152);"/>
                    <rect x="139.5" y="125.3" width="7.1" height="7.1" style="fill:rgb(168,65,152);"/>
                    <rect x="153.6" y="125.3" width="7.1" height="7.1" style="fill:rgb(168,65,152);"/>
                    <rect x="167.8" y="111.1" width="7.1" height="7.1" style="fill:rgb(168,65,152);"/>
                    <rect x="167.8" y="125.3" width="7.1" height="7.1" style="fill:rgb(168,65,152);"/>
                    <rect x="125.3" y="125.3" width="7.1" height="7.1" style="fill:rgb(168,65,152);"/>
                    <rect x="125.3" y="139.4" width="7.1" height="7.1" style="fill:rgb(168,65,152);"/>
                    <rect x="139.5" y="139.4" width="7.1" height="7.1" style="fill:rgb(168,65,152);"/>
                    <rect x="167.8" y="139.4" width="7.1" height="7.1" style="fill:rgb(168,65,152);"/>
                    <rect x="125.3" y="153.6" width="7.1" height="7.1" style="fill:rgb(168,65,152);"/>
                    <rect x="139.5" y="153.6" width="7.1" height="7.1" style="fill:rgb(168,65,152);"/>
                    <rect x="153.6" y="153.6" width="7.1" height="7.1" style="fill:rgb(168,65,152);"/>
                    <rect x="153.6" y="139.4" width="7.1" height="7.1" style="fill:rgb(168,65,152);"/>
                    <rect x="167.8" y="153.6" width="7.1" height="7.1" style="fill:rgb(168,65,152);"/>
                </g>
            </g>
            <path id="gear-9-icon_1_" d="M158.8,135L158.8,130.7L156.5,129.9C155.6,129.6 154.9,128.9 154.6,128.1C154.2,127.2 154.3,126.3 154.7,125.4L155.7,123.2L152.7,120.2L150.5,121.2C149.7,121.6 148.7,121.6 147.8,121.3C146.9,120.9 146.3,120.2 146,119.4L145.2,117.1L140.9,117.1L140.1,119.4C139.8,120.3 139.1,121 138.3,121.3C137.4,121.7 136.5,121.6 135.6,121.2L133.4,120.2L130.4,123.2L131.4,125.4C131.8,126.2 131.8,127.2 131.5,128.1C131.1,129 130.4,129.6 129.6,129.9L127.3,130.7L127.3,135L129.6,135.8C130.5,136.1 131.2,136.8 131.5,137.6C131.9,138.5 131.8,139.4 131.4,140.3L130.4,142.5L133.4,145.5L135.6,144.5C136.4,144.1 137.4,144.1 138.3,144.4C139.2,144.8 139.8,145.5 140.1,146.3L140.9,148.6L145.2,148.6L146,146.3C146.3,145.4 147,144.7 147.9,144.3C148.8,143.9 149.7,144 150.6,144.4L152.8,145.5L155.8,142.5L154.8,140.3C154.4,139.5 154.4,138.5 154.7,137.6C155.1,136.7 155.8,136.1 156.6,135.8L158.8,135ZM143,138.7C139.8,138.7 137.2,136.1 137.2,132.9C137.2,129.7 139.8,127.1 143,127.1C146.2,127.1 148.8,129.7 148.8,132.9C148.8,136.1 146.2,138.7 143,138.7ZM173.1,147.5L173.1,145.2L171.9,144.8C171.4,144.6 171.1,144.3 170.9,143.8C170.7,143.3 170.7,142.8 170.9,142.4L171.5,141.2L169.9,139.6L168.7,140.2C168.3,140.4 167.7,140.4 167.3,140.2C166.8,140 166.5,139.6 166.3,139.2L165.9,138L163.6,138L163.2,139.2C163,139.7 162.7,140 162.2,140.2C161.7,140.4 161.2,140.4 160.8,140.2L159.6,139.6L158,141.2L158.6,142.4C158.8,142.8 158.8,143.4 158.6,143.8C158.4,144.3 158,144.6 157.6,144.8L156.4,145.2L156.4,147.5L157.6,147.9C158.1,148.1 158.4,148.4 158.6,148.9C158.8,149.4 158.8,149.9 158.6,150.3L158,151.5L159.6,153.1L160.8,152.5C161.2,152.3 161.8,152.3 162.2,152.5C162.7,152.7 163,153.1 163.2,153.5L163.6,154.7L165.9,154.7L166.3,153.5C166.5,153 166.8,152.6 167.3,152.5C167.8,152.3 168.3,152.3 168.7,152.5L169.9,153.1L171.5,151.5L170.9,150.3C170.7,149.9 170.7,149.3 170.9,148.9C171.1,148.4 171.5,148.1 171.9,147.9L173.1,147.5ZM164.7,149.5C163,149.5 161.6,148.1 161.6,146.4C161.6,144.7 163,143.3 164.7,143.3C166.4,143.3 167.8,144.7 167.8,146.4C167.8,148.1 166.4,149.5 164.7,149.5Z" style="fill:white;fill-rule:nonzero;"/>
        </g>
    </g>
</svg>
